badges/luminary-light.svg

<svg width="123" height="40" viewBox="0 0 123 40" fill="none" xmlns="http://www.w3.org/2000/svg">
<rect x="0.5" y="0.5" width="122" height="39" rx="4.5" fill="white"/>
<path d="M10.525 29.475C8.685 27.635 8 24.635 8 20C8 15.365 8.685 12.365 10.525 10.525C12.365 8.685 15.365 8 20 8C24.635 8 27.635 8.685 29.475 10.525C31.315 12.365 32 15.365 32 20C32 24.635 31.315 27.635 29.475 29.475C27.635 31.315 24.635 32 20 32C15.365 32 12.365 31.315 10.525 29.475Z" fill="#111C32"/>
<path d="M19.85 12.725C17.9405 12.725 16.1091 13.4835 14.7589 14.8338C13.4086 16.1841 12.65 18.0154 12.65 19.925C12.65 21.8345 13.4086 23.6659 14.7589 25.0161C16.1091 26.3664 17.9405 27.125 19.85 27.125H27.05V19.925C27.05 18.0154 26.2915 16.1841 24.9412 14.8338C23.5909 13.4835 21.7596 12.725 19.85 12.725M19.3865 17.2706V24.8346L17.0176 23.8117V16.2477L18.8433 15.4937L21.2109 16.5073L19.3865 17.2706ZM21.2115 19.5498L23.6577 20.5739L21.2115 21.611V19.5498Z" fill="#FFE500"/>
<path d="M39.7486 14.5V8.31818H40.4972V13.8359H43.3707V14.5H39.7486ZM44.4332 14.5V9.86364H45.1456V14.5H44.4332ZM44.7955 9.09091C44.6566 9.09091 44.5369 9.04362 44.4363 8.94904C44.3377 8.85446 44.2884 8.74077 44.2884 8.60795C44.2884 8.47514 44.3377 8.36145 44.4363 8.26687C44.5369 8.17229 44.6566 8.125 44.7955 8.125C44.9343 8.125 45.053 8.17229 45.1516 8.26687C45.2522 8.36145 45.3026 8.47514 45.3026 8.60795C45.3026 8.74077 45.2522 8.85446 45.1516 8.94904C45.053 9.04362 44.9343 9.09091 44.7955 9.09091ZM49.7344 10.902L49.0945 11.0831C49.0543 10.9764 48.9949 10.8728 48.9164 10.7722C48.8399 10.6696 48.7353 10.585 48.6025 10.5186C48.4697 10.4522 48.2996 10.419 48.0924 10.419C47.8086 10.419 47.5722 10.4844 47.383 10.6152C47.1959 10.744 47.1023 10.908 47.1023 11.1072C47.1023 11.2843 47.1667 11.4242 47.2955 11.5268C47.4243 11.6294 47.6255 11.715 47.8992 11.7834L48.5874 11.9524C49.0019 12.053 49.3108 12.207 49.5141 12.4142C49.7173 12.6195 49.8189 12.8841 49.8189 13.2081C49.8189 13.4737 49.7425 13.7112 49.5895 13.9205C49.4386 14.1297 49.2273 14.2947 48.9557 14.4155C48.684 14.5362 48.3681 14.5966 48.0079 14.5966C47.535 14.5966 47.1436 14.494 46.8337 14.2887C46.5238 14.0835 46.3276 13.7836 46.2451 13.3892L46.9212 13.2202C46.9856 13.4697 47.1073 13.6568 47.2864 13.7816C47.4676 13.9064 47.704 13.9688 47.9958 13.9688C48.3278 13.9688 48.5914 13.8983 48.7866 13.7575C48.9838 13.6146 49.0824 13.4435 49.0824 13.2443C49.0824 13.0833 49.0261 12.9485 48.9134 12.8398C48.8007 12.7292 48.6276 12.6467 48.3942 12.5923L47.6215 12.4112C47.1969 12.3106 46.885 12.1547 46.6858 11.9434C46.4886 11.7301 46.39 11.4634 46.39 11.1435C46.39 10.8819 46.4634 10.6504 46.6103 10.4492C46.7592 10.248 46.9615 10.09 47.217 9.97532C47.4746 9.86062 47.7664 9.80327 48.0924 9.80327C48.5512 9.80327 48.9114 9.90388 49.173 10.1051C49.4366 10.3063 49.6237 10.572 49.7344 10.902ZM52.9076 9.86364V10.4673H50.5049V9.86364H52.9076ZM51.2052 8.75284H51.9175V13.1719C51.9175 13.3731 51.9467 13.524 52.0051 13.6246C52.0654 13.7232 52.1419 13.7897 52.2345 13.8239C52.329 13.8561 52.4287 13.8722 52.5333 13.8722C52.6118 13.8722 52.6762 13.8681 52.7265 13.8601C52.7768 13.85 52.817 13.842 52.8472 13.8359L52.9921 14.4759C52.9438 14.494 52.8764 14.5121 52.7899 14.5302C52.7033 14.5503 52.5937 14.5604 52.4608 14.5604C52.2596 14.5604 52.0624 14.5171 51.8692 14.4306C51.6781 14.344 51.5191 14.2122 51.3923 14.0352C51.2675 13.8581 51.2052 13.6347 51.2052 13.3651V8.75284ZM55.8732 14.5966C55.4265 14.5966 55.0411 14.498 54.7172 14.3008C54.3952 14.1016 54.1467 13.8239 53.9716 13.4677C53.7985 13.1095 53.712 12.6929 53.712 12.218C53.712 11.7431 53.7985 11.3246 53.9716 10.9624C54.1467 10.5981 54.3902 10.3144 54.7021 10.1112C55.016 9.90589 55.3822 9.80327 55.8008 9.80327C56.0423 9.80327 56.2807 9.84351 56.5162 9.92401C56.7516 10.0045 56.9659 10.1353 57.1591 10.3164C57.3523 10.4955 57.5062 10.733 57.6209 11.0288C57.7356 11.3246 57.793 11.6888 57.793 12.1214V12.4233H54.2191V11.8075H57.0685C57.0685 11.5459 57.0162 11.3125 56.9116 11.1072C56.8089 10.902 56.6621 10.74 56.4709 10.6213C56.2817 10.5025 56.0584 10.4432 55.8008 10.4432C55.517 10.4432 55.2715 10.5136 55.0643 10.6545C54.859 10.7933 54.7011 10.9744 54.5904 11.1978C54.4797 11.4212 54.4244 11.6606 54.4244 11.9162V12.3267C54.4244 12.6768 54.4847 12.9737 54.6055 13.2172C54.7282 13.4586 54.8983 13.6428 55.1156 13.7695C55.3329 13.8943 55.5855 13.9567 55.8732 13.9567C56.0604 13.9567 56.2294 13.9305 56.3803 13.8782C56.5333 13.8239 56.6651 13.7434 56.7757 13.6367C56.8864 13.5281 56.9719 13.3932 57.0323 13.2322L57.7205 13.4254C57.6481 13.6589 57.5263 13.8641 57.3553 14.0412C57.1842 14.2163 56.973 14.3531 56.7214 14.4517C56.4699 14.5483 56.1871 14.5966 55.8732 14.5966ZM59.589 11.7109V14.5H58.8766V9.86364H59.5648V10.5881H59.6252C59.7338 10.3526 59.8989 10.1635 60.1202 10.0206C60.3416 9.87571 60.6273 9.80327 60.9775 9.80327C61.2914 9.80327 61.5661 9.86766 61.8015 9.99645C62.0369 10.1232 62.2201 10.3164 62.3509 10.576C62.4817 10.8336 62.5471 11.1596 62.5471 11.554V14.5H61.8347V11.6023C61.8347 11.238 61.7401 10.9543 61.551 10.7511C61.3618 10.5458 61.1022 10.4432 60.7722 10.4432C60.5448 10.4432 60.3416 10.4925 60.1625 10.5911C59.9854 10.6897 59.8455 10.8336 59.7429 11.0227C59.6403 11.2119 59.589 11.4413 59.589 11.7109ZM68.1229 14.5966C67.7044 14.5966 67.3371 14.497 67.0212 14.2978C66.7073 14.0985 66.4618 13.8198 66.2847 13.4616C66.1096 13.1035 66.0221 12.6849 66.0221 12.206C66.0221 11.723 66.1096 11.3014 66.2847 10.9412C66.4618 10.581 66.7073 10.3013 67.0212 10.1021C67.3371 9.90288 67.7044 9.80327 68.1229 9.80327C68.5415 9.80327 68.9077 9.90288 69.2216 10.1021C69.5376 10.3013 69.7831 10.581 69.9581 10.9412C70.1352 11.3014 70.2238 11.723 70.2238 12.206C70.2238 12.6849 70.1352 13.1035 69.9581 13.4616C69.7831 13.8198 69.5376 14.0985 69.2216 14.2978C68.9077 14.497 68.5415 14.5966 68.1229 14.5966ZM68.1229 13.9567C68.4409 13.9567 68.7025 13.8752 68.9077 13.7122C69.113 13.5492 69.2649 13.3349 69.3635 13.0692C69.4621 12.8036 69.5114 12.5159 69.5114 12.206C69.5114 11.8961 69.4621 11.6073 69.3635 11.3397C69.2649 11.072 69.113 10.8557 68.9077 10.6907C68.7025 10.5257 68.4409 10.4432 68.1229 10.4432C67.805 10.4432 67.5434 10.5257 67.3381 10.6907C67.1329 10.8557 66.9809 11.072 66.8823 11.3397C66.7837 11.6073 66.7344 11.8961 66.7344 12.206C66.7344 12.5159 66.7837 12.8036 66.8823 13.0692C66.9809 13.3349 67.1329 13.5492 67.3381 13.7122C67.5434 13.8752 67.805 13.9567 68.1229 13.9567ZM72.0235 11.7109V14.5H71.3112V9.86364H71.9994V10.5881H72.0597C72.1684 10.3526 72.3334 10.1635 72.5548 10.0206C72.7761 9.87571 73.0619 9.80327 73.412 9.80327C73.7259 9.80327 74.0006 9.86766 74.2361 9.99645C74.4715 10.1232 74.6546 10.3164 74.7854 10.576C74.9162 10.8336 74.9816 11.1596 74.9816 11.554V14.5H74.2693V11.6023C74.2693 11.238 74.1747 10.9543 73.9855 10.7511C73.7964 10.5458 73.5368 10.4432 73.2068 10.4432C72.9794 10.4432 72.7761 10.4925 72.597 10.5911C72.42 10.6897 72.2801 10.8336 72.1775 11.0227C72.0748 11.2119 72.0235 11.4413 72.0235 11.7109Z" fill="black"/>
<path d="M39.5412 30.5V17.7727H41.0824V29.1328H46.9986V30.5H39.5412ZM54.9517 26.5973V20.9545H56.4183V30.5H54.9517V28.8842H54.8523C54.6286 29.369 54.2805 29.7812 53.8082 30.1209C53.3359 30.4565 52.7393 30.6243 52.0185 30.6243C51.4219 30.6243 50.8916 30.4938 50.4276 30.2328C49.9635 29.9676 49.599 29.5699 49.3338 29.0396C49.0687 28.5051 48.9361 27.8319 48.9361 27.0199V20.9545H50.4027V26.9205C50.4027 27.6165 50.5974 28.1716 50.9869 28.5859C51.3804 29.0002 51.8817 29.2074 52.4908 29.2074C52.8554 29.2074 53.2261 29.1142 53.6032 28.9277C53.9843 28.7413 54.3033 28.4554 54.5602 28.0701C54.8212 27.6848 54.9517 27.1939 54.9517 26.5973ZM58.8545 30.5V20.9545H60.2714V22.446H60.3957C60.5946 21.9364 60.9157 21.5408 61.359 21.2591C61.8023 20.9732 62.3347 20.8303 62.9561 20.8303C63.5858 20.8303 64.1099 20.9732 64.5284 21.2591C64.951 21.5408 65.2803 21.9364 65.5165 22.446H65.6159C65.8603 21.953 66.227 21.5615 66.7159 21.2715C67.2047 20.9773 67.791 20.8303 68.4746 20.8303C69.328 20.8303 70.0261 21.0975 70.5688 21.6319C71.1116 22.1622 71.3829 22.9888 71.3829 24.1115V30.5H69.9163V24.1115C69.9163 23.4072 69.7237 22.9038 69.3384 22.6014C68.9531 22.2989 68.4994 22.1477 67.9774 22.1477C67.3062 22.1477 66.7863 22.3507 66.4176 22.7567C66.0488 23.1586 65.8645 23.6682 65.8645 24.2855V30.5H64.373V23.9624C64.373 23.4196 64.1969 22.9825 63.8448 22.6511C63.4926 22.3155 63.039 22.1477 62.4838 22.1477C62.1026 22.1477 61.7463 22.2492 61.4149 22.4522C61.0876 22.6552 60.8225 22.937 60.6195 23.2974C60.4206 23.6537 60.3212 24.0659 60.3212 24.5341V30.5H58.8545ZM73.8145 30.5V20.9545H75.2811V30.5H73.8145ZM74.5602 19.3636C74.2744 19.3636 74.0279 19.2663 73.8207 19.0716C73.6177 18.8768 73.5162 18.6428 73.5162 18.3693C73.5162 18.0959 73.6177 17.8618 73.8207 17.6671C74.0279 17.4724 74.2744 17.375 74.5602 17.375C74.8461 17.375 75.0905 17.4724 75.2935 17.6671C75.5007 17.8618 75.6043 18.0959 75.6043 18.3693C75.6043 18.6428 75.5007 18.8768 75.2935 19.0716C75.0905 19.2663 74.8461 19.3636 74.5602 19.3636ZM79.1839 24.7578V30.5H77.7173V20.9545H79.1342V22.446H79.2585C79.4822 21.9613 79.822 21.5719 80.2777 21.2777C80.7334 20.9794 81.3217 20.8303 82.0426 20.8303C82.6889 20.8303 83.2544 20.9628 83.7392 21.228C84.2239 21.489 84.6009 21.8867 84.8702 22.4212C85.1395 22.9515 85.2741 23.6226 85.2741 24.4347V30.5H83.8075V24.5341C83.8075 23.7842 83.6128 23.2 83.2234 22.7816C82.8339 22.359 82.2995 22.1477 81.62 22.1477C81.1519 22.1477 80.7334 22.2492 80.3647 22.4522C80.0001 22.6552 79.7122 22.9515 79.5009 23.3409C79.2896 23.7303 79.1839 24.2027 79.1839 24.7578ZM90.5131 30.7237C89.9082 30.7237 89.3593 30.6098 88.8663 30.3819C88.3732 30.1499 87.9817 29.8164 87.6917 29.3814C87.4017 28.9422 87.2567 28.4119 87.2567 27.7905C87.2567 27.2436 87.3644 26.8003 87.5799 26.4606C87.7953 26.1167 88.0832 25.8474 88.4437 25.6527C88.8041 25.458 89.2018 25.313 89.6369 25.2177C90.076 25.1183 90.5172 25.0395 90.9605 24.9815C91.5406 24.907 92.0108 24.851 92.3712 24.8137C92.7358 24.7723 93.001 24.704 93.1667 24.6087C93.3365 24.5134 93.4215 24.3477 93.4215 24.1115V24.0618C93.4215 23.4486 93.2537 22.9722 92.9181 22.6325C92.5867 22.2927 92.0833 22.1229 91.408 22.1229C90.7078 22.1229 90.1589 22.2762 89.7611 22.5827C89.3634 22.8893 89.0838 23.2166 88.9222 23.5646L87.5301 23.0675C87.7787 22.4875 88.1102 22.0359 88.5245 21.7127C88.9429 21.3854 89.3986 21.1576 89.8916 21.0291C90.3888 20.8965 90.8777 20.8303 91.3583 20.8303C91.6648 20.8303 92.017 20.8675 92.4147 20.9421C92.8166 21.0125 93.204 21.1596 93.5768 21.3833C93.9539 21.6071 94.2666 21.9447 94.5152 22.3963C94.7638 22.8479 94.8881 23.4528 94.8881 24.2109V30.5H93.4215V29.2074H93.3469C93.2475 29.4145 93.0818 29.6362 92.8497 29.8723C92.6177 30.1085 92.3091 30.3094 91.9238 30.4751C91.5385 30.6409 91.0683 30.7237 90.5131 30.7237ZM90.7368 29.4062C91.3168 29.4062 91.8057 29.2923 92.2034 29.0645C92.6053 28.8366 92.9077 28.5424 93.1108 28.182C93.3179 27.8216 93.4215 27.4425 93.4215 27.0447V25.7024C93.3593 25.777 93.2226 25.8453 93.0113 25.9075C92.8042 25.9655 92.5639 26.0173 92.2904 26.0629C92.0211 26.1043 91.7581 26.1416 91.5012 26.1747C91.2485 26.2037 91.0434 26.2286 90.886 26.2493C90.5048 26.299 90.1485 26.3798 89.8171 26.4917C89.4898 26.5994 89.2246 26.763 89.0216 26.9826C88.8228 27.198 88.7233 27.4922 88.7233 27.8651C88.7233 28.3746 88.9118 28.7599 89.2888 29.021C89.67 29.2778 90.1527 29.4062 90.7368 29.4062ZM97.315 30.5V20.9545H98.7319V22.3963H98.8313C99.0053 21.924 99.3202 21.5408 99.7759 21.2466C100.232 20.9525 100.745 20.8054 101.317 20.8054C101.425 20.8054 101.559 20.8075 101.721 20.8116C101.883 20.8158 102.005 20.822 102.088 20.8303V22.3217C102.038 22.3093 101.924 22.2907 101.746 22.2658C101.572 22.2368 101.388 22.2223 101.193 22.2223C100.729 22.2223 100.315 22.3197 99.9499 22.5144C99.5895 22.705 99.3036 22.9701 99.0923 23.3098C98.8852 23.6454 98.7816 24.0286 98.7816 24.4595V30.5H97.315ZM104.811 34.0795C104.563 34.0795 104.341 34.0588 104.146 34.0174C103.952 33.9801 103.817 33.9428 103.742 33.9055L104.115 32.6129C104.472 32.7041 104.786 32.7372 105.06 32.7124C105.333 32.6875 105.576 32.5653 105.787 32.3457C106.002 32.1303 106.199 31.7802 106.377 31.2955L106.651 30.5497L103.121 20.9545H104.712L107.347 28.5611H107.446L110.081 20.9545H111.672L107.62 31.892C107.438 32.3851 107.212 32.7931 106.943 33.1163C106.674 33.4436 106.361 33.686 106.005 33.8434C105.652 34.0008 105.255 34.0795 104.811 34.0795Z" fill="black"/>
<rect x="0.5" y="0.5" width="122" height="39" rx="4.5" stroke="#A6A6A6"/>
</svg>

<svg xmlns="http://www.w3.org/2000/svg" width="123" height="40" fill="none" viewBox="0 0 123 40">
  <rect width="122" height="39" x=".5" y=".5" fill="#fff" rx="4.5"/>
  <rect width="122" height="39" x=".5" y=".5" stroke="#A6A6A6" rx="4.5"/>
  <path fill="#FFE500" d="M19.85 7.925a12 12 0 0 0 0 24h12v-12a12 12 0 0 0-12-12Z"/>
  <path fill="#111C32" d="M19.078 15.5v12.608l-3.949-1.705V13.796l3.043-1.256 3.946 1.689-3.04 1.272Zm3.041 3.8 4.077 1.706-4.077 1.729V19.3Z"/>
  <path fill="#000" d="M39.749 14.5V8.318h.748v5.518h2.874v.664h-3.622Zm4.684 0V9.864h.713V14.5h-.713Zm.362-5.41a.506.506 0 0 1-.359-.141.456.456 0 0 1-.148-.341c0-.133.05-.247.148-.341.1-.095.22-.142.36-.142.138 0 .257.047.356.142.1.094.15.208.15.341 0 .133-.05.246-.15.341a.496.496 0 0 1-.357.142Zm4.94 1.812-.64.181c-.04-.107-.1-.21-.179-.31a.865.865 0 0 0-.313-.254 1.14 1.14 0 0 0-.51-.1c-.284 0-.52.065-.71.196-.187.129-.28.293-.28.492a.51.51 0 0 0 .192.42c.13.102.33.188.604.256l.688.17c.415.1.724.254.927.461.203.206.305.47.305.794 0 .266-.077.503-.23.713-.15.209-.362.374-.633.495a2.33 2.33 0 0 1-.948.18c-.473 0-.864-.102-1.174-.307-.31-.205-.506-.505-.589-.9l.676-.169c.065.25.186.437.365.562.182.124.418.187.71.187.332 0 .595-.07.79-.211.198-.143.296-.314.296-.514a.54.54 0 0 0-.169-.404c-.112-.11-.285-.193-.519-.248l-.773-.18c-.424-.101-.736-.257-.935-.469a1.133 1.133 0 0 1-.296-.8c0-.261.073-.493.22-.694a1.5 1.5 0 0 1 .607-.474 2.13 2.13 0 0 1 .875-.172c.46 0 .82.1 1.081.302.264.201.45.467.561.797Zm3.173-1.038v.603h-2.403v-.603h2.403Zm-1.703-1.111h.712v4.419c0 .201.03.352.088.453.06.098.137.165.23.199a.92.92 0 0 0 .298.048c.079 0 .143-.004.194-.012l.12-.024.145.64a1.491 1.491 0 0 1-.531.085c-.201 0-.399-.044-.592-.13a1.177 1.177 0 0 1-.477-.396c-.125-.177-.187-.4-.187-.67V8.753Zm4.668 5.844c-.447 0-.832-.099-1.156-.296a1.99 1.99 0 0 1-.745-.833c-.174-.358-.26-.775-.26-1.25s.086-.893.26-1.256c.175-.364.418-.648.73-.85.314-.206.68-.309 1.099-.309.241 0 .48.04.715.121.236.08.45.211.643.392.193.18.347.417.462.713.115.296.172.66.172 1.092v.302h-3.574v-.616h2.85a1.52 1.52 0 0 0-.157-.7 1.183 1.183 0 0 0-.441-.486 1.234 1.234 0 0 0-.67-.178c-.284 0-.53.07-.737.212a1.39 1.39 0 0 0-.474.543c-.11.223-.166.463-.166.718v.41c0 .35.06.648.181.891.123.242.293.426.51.553.218.124.47.187.758.187.187 0 .356-.027.507-.079.153-.054.285-.135.396-.241.11-.109.196-.244.256-.405l.689.193a1.526 1.526 0 0 1-.366.616 1.78 1.78 0 0 1-.634.41 2.35 2.35 0 0 1-.848.146Zm3.716-2.886V14.5h-.712V9.864h.688v.724h.06a1.33 1.33 0 0 1 .495-.567c.222-.145.507-.218.858-.218.313 0 .588.065.823.193.236.127.42.32.55.58.13.258.196.584.196.978V14.5h-.712v-2.898c0-.364-.095-.648-.284-.85-.19-.206-.449-.309-.779-.309-.227 0-.43.05-.61.148a1.058 1.058 0 0 0-.42.432 1.43 1.43 0 0 0-.153.688Zm8.534 2.886c-.419 0-.786-.1-1.102-.3a2.018 2.018 0 0 1-.736-.835c-.175-.358-.263-.777-.263-1.256 0-.483.088-.905.263-1.265.177-.36.422-.64.736-.839.316-.2.683-.299 1.102-.299.418 0 .785.1 1.099.3.316.198.561.478.736.838.177.36.266.782.266 1.265 0 .479-.089.898-.266 1.256-.175.358-.42.636-.736.836a2.01 2.01 0 0 1-1.1.299Zm0-.64c.318 0 .58-.082.785-.245a1.44 1.44 0 0 0 .456-.643 2.47 2.47 0 0 0 .147-.863c0-.31-.049-.599-.147-.866a1.46 1.46 0 0 0-.456-.65c-.206-.164-.467-.247-.785-.247s-.58.083-.785.248a1.46 1.46 0 0 0-.456.649 2.487 2.487 0 0 0-.148.866c0 .31.05.598.148.863.099.266.25.48.456.643.205.163.467.245.785.245Zm3.9-2.246V14.5h-.712V9.864H72v.724h.06c.11-.235.274-.424.496-.567.221-.145.507-.218.857-.218.314 0 .589.065.824.193a1.3 1.3 0 0 1 .55.58c.13.258.196.584.196.978V14.5h-.713v-2.898c0-.364-.094-.648-.284-.85-.189-.206-.448-.309-.778-.309-.228 0-.43.05-.61.148a1.059 1.059 0 0 0-.42.432 1.43 1.43 0 0 0-.154.688ZM39.541 30.5V17.773h1.541v11.36H47V30.5h-7.46Zm15.41-3.903v-5.643h1.467V30.5h-1.466v-1.616h-.1a3.131 3.131 0 0 1-1.044 1.237c-.472.335-1.069.503-1.79.503-.596 0-1.126-.13-1.59-.391-.464-.265-.829-.663-1.094-1.193-.265-.535-.398-1.208-.398-2.02v-6.066h1.467v5.966c0 .696.194 1.252.584 1.666.393.414.895.621 1.504.621a2.49 2.49 0 0 0 1.112-.28c.381-.186.7-.472.957-.857.261-.385.392-.876.392-1.473Zm3.904 3.903v-9.546h1.416v1.492h.125a2.4 2.4 0 0 1 .963-1.187c.443-.286.976-.429 1.597-.429.63 0 1.154.143 1.572.43.423.28.752.676.988 1.186h.1a2.78 2.78 0 0 1 1.1-1.175c.489-.294 1.075-.44 1.759-.44.853 0 1.551.267 2.094.8.543.531.814 1.358.814 2.48V30.5h-1.467v-6.389c0-.704-.192-1.207-.578-1.51a2.139 2.139 0 0 0-1.36-.453c-.672 0-1.192.203-1.56.609-.37.402-.553.911-.553 1.528V30.5h-1.492v-6.538c0-.542-.176-.98-.528-1.31-.352-.337-.806-.504-1.361-.504a2.01 2.01 0 0 0-1.07.304 2.3 2.3 0 0 0-.794.845c-.2.357-.299.769-.299 1.237V30.5h-1.466Zm14.96 0v-9.546h1.466V30.5h-1.467Zm.745-11.136c-.286 0-.532-.098-.74-.292a.939.939 0 0 1-.304-.703.94.94 0 0 1 .305-.702 1.04 1.04 0 0 1 .74-.292c.285 0 .53.097.732.292a.93.93 0 0 1 .311.702.93.93 0 0 1-.31.703 1.021 1.021 0 0 1-.734.292Zm4.624 5.394V30.5h-1.467v-9.546h1.417v1.492h.124a2.726 2.726 0 0 1 1.02-1.168c.455-.299 1.044-.448 1.765-.448.646 0 1.211.133 1.696.398.485.261.862.659 1.131 1.193.27.53.404 1.202.404 2.014V30.5h-1.466v-5.966c0-.75-.195-1.334-.585-1.752-.39-.423-.924-.634-1.603-.634a2.56 2.56 0 0 0-1.255.304c-.365.203-.653.5-.864.889-.211.39-.317.862-.317 1.417Zm11.33 5.966a3.878 3.878 0 0 1-1.648-.342 2.826 2.826 0 0 1-1.174-1c-.29-.44-.435-.97-.435-1.591 0-.547.107-.99.323-1.33a2.28 2.28 0 0 1 .864-.808 4.54 4.54 0 0 1 1.193-.435c.439-.1.88-.178 1.323-.236.58-.075 1.05-.131 1.411-.168.365-.042.63-.11.796-.205.17-.096.254-.261.254-.498v-.05c0-.612-.167-1.089-.503-1.428-.331-.34-.835-.51-1.51-.51-.7 0-1.25.153-1.647.46-.398.306-.677.634-.839.982l-1.392-.498c.249-.58.58-1.031.995-1.354a3.727 3.727 0 0 1 1.367-.684 5.676 5.676 0 0 1 1.466-.199c.307 0 .659.038 1.057.112.402.07.789.218 1.162.441.377.224.69.562.938 1.013.249.452.373 1.057.373 1.815V30.5h-1.467v-1.293h-.074a2.58 2.58 0 0 1-.497.665c-.232.236-.54.437-.926.603-.386.166-.856.249-1.41.249Zm.223-1.318c.58 0 1.069-.114 1.466-.341a2.328 2.328 0 0 0 1.218-2.02v-1.343c-.062.075-.198.143-.41.205a6.92 6.92 0 0 1-.72.156 32.684 32.684 0 0 1-1.405.186c-.381.05-.737.13-1.069.243a1.842 1.842 0 0 0-.795.49c-.2.216-.299.51-.299.883 0 .51.189.895.566 1.156.381.257.864.385 1.448.385Zm6.578 1.094v-9.546h1.417v1.442h.1c.173-.472.488-.855.944-1.15a2.78 2.78 0 0 1 1.541-.44c.108 0 .242.002.404.006.162.004.284.01.367.018v1.492a4.446 4.446 0 0 0-.342-.056 3.36 3.36 0 0 0-.553-.044 2.6 2.6 0 0 0-1.243.292c-.36.191-.646.456-.858.796-.207.335-.31.719-.31 1.15v6.04h-1.467Zm7.496 3.58c-.248 0-.47-.021-.665-.063a1.773 1.773 0 0 1-.404-.111l.373-1.293c.357.091.671.124.945.1a1.14 1.14 0 0 0 .727-.367c.215-.216.412-.566.59-1.05l.274-.746-3.53-9.596h1.591l2.635 7.607h.099l2.635-7.607h1.591l-4.052 10.938c-.182.493-.408.901-.677 1.224-.269.328-.582.57-.938.727-.353.158-.75.236-1.194.236Z"/>
</svg>
